X: 205
T: Guan hua
L: 1/16
M: 3/8
K: G
e g2< c2 B [I:setbarnb 1]| 
e g2< c2 B | 
A BA4 | 
e g2< c2 B | 
e g2< c2 B | 
A BA4 | 
d2 d2 A B | 
g2> B2 A c | 
g2> B2 A c | 
F2> E2 D E | 
D4z2 |]

@@@ Tune index: 9079
